!!!OTL: No! No! A Thousand Times No!!
!!!COM: Sherman, Al
!!!COM: Lewis, Al
!!!COM: Silver, Abner
!!!LAR: Frey, Hugo
!! "No! No! A Thousand Times No!!" by Al Sherman, Al Lewis, and Abner Silver
!! from "Barbershop Memories" compiled and arranged by Hugo Frey
!! copyright 1975 by EMI Music Publ. Ltd.; pp. 24-25; in A- major
**kern	**kern	**kern	**kern
*Ivox	*Ivox	*Ivox	*Ivox
*M3/4	*M3/4	*M3/4	*M3/4
*A-:	*A-:	*A-:	*A-:
=1	=1	=1	=1
4AA-	4A-	4E-	4c
4AA-	4E-	4A-	4c
4G-	4A-	4c	4e-
=2	=2	=2	=2
4F	4An	4e-	4g-
4F	4A	4d-	4f
4F	4A	4c	4e-
=3	=3	=3	=3
4BB-	4A-	4B-	4dn
2BB-	[2A-	[2f	2d
=4	=4	=4	=4
2Dn	2A-]	2F]	2B-
4BB-	4A-	4F	4dn
=5	=5	=5	=5
4BB-	4G	4E-	4d-
4BB-	4E-	4G	4d-
4E-	4G	4B-	4d-
=6	=6	=6	=6
4E-	4A-	4d-	4f
4E-	4G	4c	4e-
4E-	4G	4B-	4d-
=7	=7	=7	=7
2AA-	2A-	[2.E-	2c
4AAn	4G-	.	4c
=8	=8	=8	=8
2.BB-	2.Gn	2.E-]	2.d-
=9	=9	=9	=9
4AA-	4A-	4E-	4c
4AA-	4E-	4A-	4c
4G-	4A-	4c	4e-
=10	=10	=10	=10
4F	4An	4e-	4g-
4F	4A	4d-	4f
4F	4A	4c	4e-
=11	=11	=11	=11
4BB-	4A-	4B-	4dn
2BB-	[2A-	[2F	2d-
=12	=12	=12	=12
2Dn	2A-]	2F]	2B-
4BB-	4A-	4F	4dn
=13	=13	=13	=13
4BB-	4G	4E-	4d-
4BB-	4E-	4G	4d-
4E-	4G	4B-	4d-
=14	=14	=14	=14
4E-	4A-	4d-	4f
4E-	4G	4c	4e-
4E-	4G	4B-	4d-
=15	=15	=15	=15
[2.AA-	2E-	[2.A-	[2.c
.	4F	.	.
=16	=16	=16	=16
2.AA-]	2.E-	2.A-]	2.c]
=17	=17	=17	=17
4BB-	4F	4B-	4dn
4BB-	4G	4B-	4d
4BB-	4A-	4B-	4d
=18	=18	=18	=18
4En	4G	4B-	4c#
4E	4G	4B-	4c#
4E	4G	4B-	4c#
=19	=19	=19	=19
4F	4A-	4B-	4dn
4BB-	4A-	4dn	4f
4BB-	4G	4c	4e-
=20	=20	=20	=20
2.BB-	2.A-	2.B-	2.dn
=21	=21	=21	=21
4BB-	4A-	4B-	4dn
4BB-	4A-	4d	4f
4BB-	4G	4c	4e-
=22	=22	=22	=22
4BB-	4A-	4B-	4dn
4BB-	4A-	4F	4d
4BB-	4B-	4F#	4d
=23	=23	=23	=23
{4E-	[2.B-	[2.G	[2.e-
4Dn}	.	.	.
{4C	.	.	.
=24	=24	=24	=24
2.BB-}	2.B-]	2.G]	2.e-]
=25	=25	=25	=25
4BB-	4F	4B-	4dn
4BB-	4G	4B-	4d
4BB-	4A-	4B-	4d
=26	=26	=26	=26
4En	4G	4B-	4c#
4E	4G	4B-	4c#
4E	4G	4B-	4c#
=27	=27	=27	=27
4F	4A-	4B-	4dn
4BB-	4A-	4dn	4f
4BB-	4G	4c	4e-
=28	=28	=28	=28
2.BB-	2.A-	2.B-	2.dn
=29	=29	=29	=29
4BB-	4F	4B-	4dn
4BB-	4G	4B-	4d
4BB-	4A-	4B-	4d
=30	=30	=30	=30
4F	4A-	4B-	4dn
4G	4B-	4c	4e-
4F	4B-	4dn	4a-
=31	=31	=31	=31
2E-	[2.d-	[2.e-	[2.g
4F	.	.	.
=32	=32	=32	=32
2.E-	2.d-]	2.e-]	2.g]
=33	=33	=33	=33
2.AA-	2.E-	2.c	2.e-
=34	=34	=34	=34
2AAn	2G-	2c	2e-
4AA	4G-	4c	4e-
=35	=35	=35	=35
4BB-	4F	4e-	4c
4BB-	4F	4d-	4B-
4BB-	4F	4B-	4d-
=36	=36	=36	=36
2.BB-	2.A-	2.F	2.dn
=37	=37	=37	=37
4E-	4B-	4G	4d-
4E-	4An	4F#	4c
4E-	4B-	4G	4d-
=38	=38	=38	=38
4E-	4G	4c	4e-
4.E-	4.G	4.B-	4.d-
8E-	8B-	8G	8d-
=39	=39	=39	=39
[4AA-	[4A-	[4F	[4c
2AA-]	2A-]	2E-_	2c]
=40	=40	=40	=40
4E-	4G	2.E-]	4Bn
2E-	2G	.	2B
=41	=41	=41	=41
2.AA-	2.E-	2.c	2.e-
=42	=42	=42	=42
2AAn	2G-	2c	2e-
4AA	4G-	4c	4e-
=43	=43	=43	=43
4BB-	4F	4e-	4g-
4BB-	4F	4d-	4f
4BB-	4F	4B-	4d-
=44	=44	=44	=44
2.BB-	2.A-	2.F	2.dn
=45	=45	=45	=45
4E-	4B-	4G	4d-
4E-	4An	4F#	4c
4E-	4B-	4G	4d-
=46	=46	=46	=46
4E-	4G	4d-	4f
4E-	4G	4c	4e-
4E-	4G	4B-	4d-
=47	=47	=47	=47
[2.AA-	[2.E-	[2.A-	[2.c
=48	=48	=48	=48
4AA-]	4E-]	4A-]	4c]
4r	4r	4r	4r
4r	4r	4r	4r
==	==	==	==
*-	*-	*-	*-
